assets/raw/ytmdRemote.svg

<svg xmlns="http://www.w3.org/2000/svg" width="288" height="288" fill="none">
    <g clip-path="url(#clip0_103_2)">
        <path fill="%accent_background%" d="M288 0H0v288h288V0Z" />
        <path stroke="%desaturated_accent%" stroke-width="8" d="M109.785 54h67.763a11.788 11.788 0 0 1 11.785 11.785v157.132a11.786 11.786 0 0 1-11.785 11.785h-67.763A11.783 11.783 0 0 1 98 222.917V65.785A11.784 11.784 0 0 1 109.785 54Z" />
        <path fill="%desaturated_accent%" d="M123.534 116.853a11.784 11.784 0 0 1 11.785 11.785v31.426a11.782 11.782 0 0 1-11.785 11.785 11.785 11.785 0 0 1-11.785-11.785v-31.426a11.784 11.784 0 0 1 11.785-11.785ZM163.799 116.853a11.788 11.788 0 0 1 11.785 11.785v31.426a11.786 11.786 0 1 1-23.57 0v-31.426a11.784 11.784 0 0 1 11.785-11.785Z" />
    </g>
</svg>

<svg width="288" height="288" viewBox="0 0 288 288" fill="none" xmlns="http://www.w3.org/2000/svg">
    <g clip-path="url(#clip0_103_2)">
        <path d="M288 0H0V288H288V0Z" fill="%accent_background%" />
        <path d="M109.785 54H177.548C180.674 54 183.671 55.2416 185.882 57.4517C188.092 59.6618 189.333 62.6594 189.333 65.7849V222.917C189.333 226.043 188.092 229.041 185.882 231.251C183.671 233.461 180.674 234.702 177.548 234.702H109.785C106.659 234.702 103.662 233.461 101.452 231.251C99.2416 229.041 98 226.043 98 222.917V65.7849C98 62.6594 99.2416 59.6618 101.452 57.4517C103.662 55.2416 106.659 54 109.785 54Z" stroke="%desaturated_accent%" stroke-width="8" />
        <path d="M123.534 116.853C126.66 116.853 129.657 118.095 131.867 120.305C134.078 122.515 135.319 125.512 135.319 128.638V160.064C135.319 163.19 134.078 166.188 131.867 168.398C129.657 170.608 126.66 171.849 123.534 171.849C120.409 171.849 117.411 170.608 115.201 168.398C112.991 166.188 111.749 163.19 111.749 160.064V128.638C111.749 125.512 112.991 122.515 115.201 120.305C117.411 118.095 120.409 116.853 123.534 116.853V116.853Z" fill="%desaturated_accent%" />
        <path d="M163.799 116.853C166.925 116.853 169.922 118.095 172.133 120.305C174.343 122.515 175.584 125.512 175.584 128.638V160.064C175.584 163.19 174.343 166.188 172.133 168.398C169.922 170.608 166.925 171.849 163.799 171.849C160.674 171.849 157.676 170.608 155.466 168.398C153.256 166.188 152.014 163.19 152.014 160.064V128.638C152.014 125.512 153.256 122.515 155.466 120.305C157.676 118.095 160.674 116.853 163.799 116.853V116.853Z" fill="%desaturated_accent%" />
    </g>
</svg>
